;FLAVOR:RepRap
;TIME:2548
;Filament used: 1.19706m
;Layer height: 0.2
;Generated with Cura_SteamEngine 3.4.1
M141 S0
T0
M104 T0 S50 ;Fixed T0 temperature
M104 T1 S50
M109 T0 S50 ;Fixed T0 temperature
M109 T1 S50
M82 ;absolute extrusion mode
G28
M83 ;relative extrusion mode
;LAYER_COUNT:51
;LAYER:0
M107
M104 T1 S50
M204 T456
M566 X562.5 Y562.5
G0 F6000 X88.809 Y162.671 Z0.2
M204 P1425
;TYPE:SKIRT
G1 F4500 X88.199 Y162.631 E0.0244
G1 X87.599 Y162.512 E0.02441
G1 X87.02 Y162.315 E0.02441
G1 X86.471 Y162.045 E0.02442
G1 X85.962 Y161.706 E0.02441
G1 X85.502 Y161.303 E0.02441
G1 X85.099 Y160.843 E0.02441
G1 X84.758 Y160.335 E0.02442
G1 X84.487 Y159.787 E0.0244
G1 X84.29 Y159.208 E0.02441
G1 X84.17 Y158.609 E0.02438
G1 X84.131 Y158.127 E0.0193
G1 X84.092 Y156.774 E0.05402
G1 X83.731 Y150.52 E0.25003
G1 X83.087 Y145.162 E0.21539
G1 X82.139 Y139.83 E0.21615
G1 X81.567 Y137.253 E0.10536
G1 X80.904 Y134.619 E0.10841
G1 X79.349 Y129.243 E0.22336
G1 X79.218 Y128.646 E0.02439
G1 X79.165 Y127.939 E0.0283
G1 X79.17 Y121.901 E0.24099
G1 X79.21 Y121.291 E0.0244
G1 X79.33 Y120.691 E0.02442
G1 X79.527 Y120.112 E0.02441
G1 X79.798 Y119.564 E0.0244
G1 X80.138 Y119.055 E0.02443
G1 X80.523 Y118.613 E0.0234
G1 X81.94 Y117.181 E0.08041
G1 X82.011 Y117.111 E0.00398
G1 X82.489 Y116.648 E0.02656
G1 X82.955 Y116.253 E0.02438
G1 X83.469 Y115.921 E0.02442
G1 X84.021 Y115.659 E0.02439
G1 X84.604 Y115.471 E0.02445
G1 X85.205 Y115.361 E0.02439
G1 X85.745 Y115.33 E0.02159
G1 X91.931 Y115.33 E0.2469
G1 X92.309 Y115.345 E0.0151
G1 X94.57 Y115.528 E0.09054
G1 X100.004 Y115.756 E0.21707
G1 X105.393 Y115.677 E0.21511
G1 X110.459 Y115.336 E0.20265
G1 X110.777 Y115.325 E0.0127
G1 X116.819 Y115.33 E0.24115
G1 X117.429 Y115.37 E0.0244
G1 X118.029 Y115.49 E0.02442
G1 X118.608 Y115.687 E0.02441
G1 X119.156 Y115.958 E0.0244
G1 X119.665 Y116.298 E0.02443
G1 X120.123 Y116.699 E0.0243
G1 X122.018 Y118.592 E0.10691
G1 X122.421 Y119.052 E0.02441
G1 X122.761 Y119.56 E0.0244
G1 X123.032 Y120.108 E0.0244
G1 X123.229 Y120.687 E0.02441
G1 X123.349 Y121.287 E0.02442
G1 X123.39 Y121.903 E0.02464
G1 X123.39 Y128.098 E0.24726
G1 X123.35 Y128.708 E0.0244
G1 X123.193 Y129.442 E0.02996
G1 X121.915 Y133.705 E0.17763
G1 X120.615 Y138.98 E0.21684
G1 X120.091 Y141.584 E0.10601
G1 X119.249 Y146.916 E0.21545
G1 X118.711 Y152.285 E0.21536
G1 X118.465 Y158.186 E0.23573
G1 X118.4 Y158.794 E0.0244
G1 X118.256 Y159.388 E0.02439
G1 X118.035 Y159.959 E0.02444
G1 X117.742 Y160.496 E0.02442
G1 X117.382 Y160.99 E0.0244
G1 X116.96 Y161.433 E0.02442
G1 X116.484 Y161.817 E0.02441
G1 X115.962 Y162.136 E0.02442
G1 X115.403 Y162.384 E0.02441
G1 X114.817 Y162.557 E0.02439
G1 X114.213 Y162.652 E0.0244
G1 X113.789 Y162.671 E0.01694
G1 X89.475 Y162.671 E0.97042
G0 F4050 X88.809 Y162.671
G0 F6000 X88.809 Y162.191
G1 F1050 E0.02658
G1 F4500 X88.231 Y162.151 E0.02312
G1 X87.664 Y162.032 E0.02312
G1 X87.119 Y161.836 E0.02312
G1 X86.606 Y161.567 E0.02312
G1 X86.135 Y161.23 E0.02311
G1 X85.715 Y160.831 E0.02312
G1 X85.353 Y160.378 E0.02314
G1 X85.058 Y159.88 E0.0231
G1 X84.833 Y159.346 E0.02313
G1 X84.685 Y158.786 E0.02312
G1 X84.611 Y158.113 E0.02702
G1 X84.572 Y156.769 E0.05366
G1 X84.208 Y150.465 E0.25203
G1 X83.563 Y145.094 E0.21591
G1 X82.61 Y139.736 E0.21721
G1 X82.034 Y137.14 E0.10613
G1 X81.373 Y134.512 E0.10816
G1 X79.81 Y129.11 E0.22445
G1 X79.688 Y128.544 E0.02311
G1 X79.645 Y127.94 E0.02417
G1 X79.65 Y121.902 E0.24099
G1 X79.69 Y121.324 E0.02312
G1 X79.81 Y120.757 E0.02313
G1 X80.006 Y120.212 E0.02312
G1 X80.276 Y119.699 E0.02314
G1 X80.614 Y119.228 E0.02314
G1 X80.865 Y118.951 E0.01492
G1 X82.282 Y117.519 E0.08041
G1 X82.345 Y117.456 E0.00356
G1 X82.823 Y116.993 E0.02656
G1 X83.266 Y116.62 E0.02311
G1 X83.756 Y116.311 E0.02312
G1 X84.284 Y116.072 E0.02313
G1 X84.84 Y115.909 E0.02313
G1 X85.412 Y115.823 E0.02309
G1 X85.745 Y115.81 E0.0133
G1 X91.931 Y115.81 E0.2469
G1 X92.27 Y115.824 E0.01354
G1 X94.536 Y116.007 E0.09074
G1 X99.974 Y116.235 E0.21723
G1 X105.413 Y116.156 E0.21711
G1 X110.491 Y115.814 E0.20313
G1 X110.776 Y115.805 E0.01138
G1 X116.818 Y115.81 E0.24115
G1 X117.396 Y115.85 E0.02312
G1 X117.963 Y115.97 E0.02313
G1 X118.508 Y116.166 E0.02312
G1 X119.021 Y116.436 E0.02314
G1 X119.492 Y116.774 E0.02314
G1 X119.783 Y117.039 E0.01571
G1 X121.678 Y118.932 E0.10691
G1 X122.059 Y119.368 E0.02311
G1 X122.376 Y119.853 E0.02313
G1 X122.623 Y120.377 E0.02312
G1 X122.796 Y120.93 E0.02313
G1 X122.891 Y121.502 E0.02314
G1 X122.91 Y121.903 E0.01602
G1 X122.91 Y128.098 E0.24726
G1 X122.87 Y128.676 E0.02312
G1 X122.733 Y129.304 E0.02565
G1 X121.453 Y133.574 E0.17792
G1 X120.143 Y138.887 E0.2184
G1 X119.621 Y141.482 E0.10565
G1 X118.771 Y146.866 E0.21755
G1 X118.232 Y152.251 E0.216
G1 X117.985 Y158.166 E0.23629
G1 X117.921 Y158.742 E0.02313
G1 X117.779 Y159.303 E0.0231
G1 X117.56 Y159.84 E0.02315
G1 X117.27 Y160.341 E0.0231
G1 X116.913 Y160.798 E0.02315
G1 X116.498 Y161.201 E0.02309
G1 X116.03 Y161.543 E0.02313
G1 X115.52 Y161.818 E0.02313
G1 X114.977 Y162.02 E0.02312
G1 X114.411 Y162.145 E0.02313
G1 X113.789 Y162.191 E0.02489
G1 X89.475 Y162.191 E0.97042
G0 F4050 X88.809 Y162.191
G0 F6000 X88.809 Y161.711
G1 F1050 E0.02658
G1 F4500 X88.265 Y161.671 E0.02177
G1 X87.733 Y161.552 E0.02176
G1 X87.224 Y161.357 E0.02176
G1 X86.749 Y161.089 E0.02177
G1 X86.319 Y160.755 E0.02173
G1 X85.942 Y160.361 E0.02176
G1 X85.626 Y159.916 E0.02178
G1 X85.379 Y159.431 E0.02172
G1 X85.205 Y158.914 E0.02177
G1 X85.109 Y158.377 E0.02177
G1 X85.091 Y158.099 E0.01112
G1 X85.052 Y156.762 E0.05339
G1 X84.686 Y150.413 E0.25382
G1 X84.04 Y145.04 E0.21599
G1 X83.077 Y139.62 E0.21971
G1 X82.506 Y137.052 E0.105
G1 X81.829 Y134.358 E0.11087
G1 X80.272 Y128.977 E0.22358
G1 X80.159 Y128.443 E0.02179
G1 X80.125 Y127.94 E0.02012
G1 X80.13 Y121.902 E0.24099
G1 X80.17 Y121.358 E0.02177
G1 X80.29 Y120.826 E0.02177
G1 X80.486 Y120.318 E0.02173
G1 X80.754 Y119.843 E0.02177
G1 X81.206 Y119.288 E0.02857
G1 X82.623 Y117.856 E0.08041
G1 X82.679 Y117.801 E0.00313
G1 X83.157 Y117.338 E0.02656
G1 X83.575 Y116.988 E0.02176
G1 X84.04 Y116.704 E0.02175
G1 X84.542 Y116.49 E0.02178
G1 X85.069 Y116.352 E0.02174
G1 X85.745 Y116.29 E0.02709
G1 X91.931 Y116.29 E0.2469
G1 X92.231 Y116.302 E0.01198
G1 X94.502 Y116.486 E0.09094
G1 X99.978 Y116.715 E0.21875
G1 X105.433 Y116.635 E0.21774
G1 X110.523 Y116.293 E0.20361
G1 X110.776 Y116.285 E0.0101
G1 X116.818 Y116.29 E0.24115
G1 X117.362 Y116.33 E0.02177
G1 X117.894 Y116.45 E0.02177
G1 X118.402 Y116.646 E0.02173
G1 X118.877 Y116.914 E0.02177
G1 X119.444 Y117.378 E0.02924
G1 X121.339 Y119.271 E0.10691
G1 X121.695 Y119.684 E0.02176
G1 X121.988 Y120.144 E0.02177
G1 X122.21 Y120.642 E0.02176
G1 X122.356 Y121.167 E0.02175
G1 X122.43 Y121.903 E0.02952
G1 X122.43 Y128.098 E0.24726
G1 X122.39 Y128.642 E0.02177
G1 X122.273 Y129.166 E0.02143
G1 X120.991 Y133.442 E0.17817
G1 X119.678 Y138.771 E0.21905
G1 X119.147 Y141.406 E0.10728
G1 X118.294 Y146.813 E0.21847
G1 X117.754 Y152.201 E0.21612
G1 X117.506 Y158.146 E0.23748
G1 X117.443 Y158.688 E0.02178
G1 X117.302 Y159.214 E0.02173
G1 X117.086 Y159.715 E0.02178
G1 X116.798 Y160.178 E0.02176
G1 X116.446 Y160.594 E0.02175
G1 X116.037 Y160.955 E0.02177
G1 X115.58 Y161.251 E0.02173
G1 X115.084 Y161.478 E0.02177
G1 X114.561 Y161.63 E0.02174
G1 X113.789 Y161.711 E0.03098
G1 X89.475 Y161.711 E0.97042
G0 F4050 X88.809 Y161.711
G0 F6000 X88.809 Y161.231
G1 F1050 E0.02658
G1 F4500 X88.302 Y161.191 E0.0203
G1 X87.807 Y161.072 E0.02032
G1 X87.337 Y160.877 E0.02031
G1 X86.904 Y160.611 E0.02028
G1 X86.517 Y160.281 E0.0203
G1 X86.187 Y159.894 E0.0203
G1 X85.921 Y159.46 E0.02032
G1 X85.727 Y158.99 E0.02029
G1 X85.608 Y158.495 E0.02032
G1 X85.57 Y158.085 E0.01643
G1 X85.53 Y156.72 E0.0545
G1 X85.165 Y150.378 E0.25354
G1 X84.512 Y144.952 E0.21813
G1 X83.552 Y139.548 E0.21906
G1 X82.965 Y136.905 E0.10806
G1 X82.295 Y134.243 E0.10956
G1 X80.733 Y128.843 E0.22436
G1 X80.63 Y128.345 E0.0203
G1 X80.605 Y127.94 E0.0162
G1 X80.61 Y121.902 E0.24099
G1 X80.65 Y121.395 E0.0203
G1 X80.77 Y120.901 E0.02029
G1 X80.965 Y120.431 E0.02031
G1 X81.231 Y119.997 E0.02032
G1 X81.547 Y119.626 E0.01945
G1 X82.964 Y118.194 E0.08041
G1 X83.013 Y118.146 E0.00274
G1 X83.491 Y117.683 E0.02656
G1 X83.883 Y117.359 E0.0203
G1 X84.321 Y117.1 E0.02031
G1 X84.794 Y116.913 E0.0203
G1 X85.29 Y116.802 E0.02029
G1 X85.745 Y116.77 E0.0182
G1 X91.931 Y116.77 E0.2469
G1 X92.192 Y116.781 E0.01043
G1 X94.468 Y116.965 E0.09114
G1 X99.965 Y117.196 E0.21959
G1 X105.454 Y117.115 E0.2191
G1 X110.556 Y116.772 E0.20409
G1 X110.776 Y116.765 E0.00879
G1 X116.818 Y116.77 E0.24115
G1 X117.325 Y116.81 E0.0203
G1 X117.819 Y116.93 E0.02029
G1 X118.289 Y117.125 E0.02031
G1 X118.723 Y117.391 E0.02032
G1 X119.105 Y117.718 E0.02007
G1 X121 Y119.611 E0.10691
G1 X121.33 Y119.997 E0.02027
G1 X121.596 Y120.431 E0.02032
G1 X121.791 Y120.901 E0.02031
G1 X121.91 Y121.396 E0.02032
G1 X121.95 Y121.903 E0.0203
G1 X121.95 Y128.098 E0.24726
G1 X121.91 Y128.605 E0.0203
G1 X121.813 Y129.029 E0.01736
G1 X120.528 Y133.316 E0.17862
G1 X119.207 Y138.673 E0.22021
G1 X118.671 Y141.335 E0.10838
G1 X117.821 Y146.726 E0.21782
G1 X117.274 Y152.184 E0.21893
G1 X117.026 Y158.126 E0.23736
G1 X116.965 Y158.631 E0.0203
G1 X116.826 Y159.12 E0.02029
G1 X116.612 Y159.582 E0.02032
G1 X116.328 Y160.004 E0.0203
G1 X115.981 Y160.377 E0.02033
G1 X115.581 Y160.69 E0.02027
G1 X115.136 Y160.938 E0.02033
G1 X114.659 Y161.112 E0.02027
G1 X114.159 Y161.21 E0.02034
G1 X113.789 Y161.231 E0.01479
G1 X89.475 Y161.231 E0.97042
G0 F4050 X88.809 Y161.231
G1 F2400 E-6
G0 F6000 X88.809 Y129.29
G0 X86.701 Y128.47
;TYPE:WALL-INNER
G1 F1050 E6.02658
G1 F4500 X86.419 Y128.47 E0.00985
G1 X86.375 Y128.47 E0.00154
G1 X86.306 Y128.401 E0.00341
G1 X86.005 Y128.101 E0.01484
G1 X85.704 Y127.8 E0.01487
G1 X85.404 Y127.501 E0.01479
G1 X85.37 Y127.467 E0.00168
G1 X85.37 Y127.381 E0.003
G1 X85.37 Y127.141 E0.00838
G1 X85.519 Y127.371
G1 X85.525 Y127.381
G1 X85.538 Y127.397
G1 X85.776 Y127.696 E0.00423
G1 X85.79 Y127.714 E0.0008
G1 X86.09 Y128.015 E0.00423
G1 X86.401 Y128.272 E0.00405
G1 X86.419 Y128.287
G1 X86.439 Y128.3
G1 X86.47 Y128.32
G1 X86.562 Y128.38
G0 F4050 X86.701 Y128.47
G0 F6000 X90.971 Y128.47
G1 F4500 X91.159 Y128.361 E0.00759
G1 X91.196 Y128.332 E0.00164
G1 X91.519 Y128.08 E0.01431
G1 X91.802 Y127.802 E0.01385
G1 X91.815 Y127.79 E0.00062
G1 X92.088 Y127.474 E0.01458
G1 X92.1 Y127.455 E0.00078
G1 X92.161 Y127.365 E0.0038
G1 X92.31 Y127.148 E0.00919
G1 X92.31 Y127.466
G1 X92.196 Y127.58
G1 X91.901 Y127.875 E0.0047
G1 X91.607 Y128.169
G1 X91.306 Y128.47 E0.00552
G1 X91.159 Y128.47
G1 X91.064 Y128.47
G0 F4050 X90.971 Y128.47
G0 F6000 X92.033 Y125.753
G0 X92.31 Y122.852
G1 F4500 X92.162 Y122.635 E0.00917
G1 X92.101 Y122.546 E0.00377
G1 X92.088 Y122.526 E0.00083
G1 X91.815 Y122.21 E0.01458
G1 X91.803 Y122.199 E0.00057
G1 X91.536 Y121.938 E0.01304
G1 X91.519 Y121.921 E0.00084
G1 X91.502 Y121.908 E0.00075
G1 X91.198 Y121.668 E0.01353
G1 X91.175 Y121.65 E0.00102
G1 X91.154 Y121.638 E0.00084
G1 X90.977 Y121.53 E0.00724
G1 X91.175 Y121.53
G1 X91.306 Y121.53
G1 X91.608 Y121.831 E0.00587
G1 X91.901 Y122.124
G1 X92.195 Y122.418 E0.00481
G1 X92.31 Y122.533
G1 X92.31 Y122.693
G0 F4050 X92.31 Y122.852
G0 F6000 X89.636 Y121.822
G0 X88.629 Y121.726
G0 X87.823 Y121.909
G0 X85.37 Y122.855
G1 F4500 X85.37 Y122.786 E0.00241
G1 X85.37 Y122.534 E0.0088
G1 X85.557 Y122.347 E0.00924
G1 X85.846 Y122.058 E0.01427
G1 X86.153 Y121.751 E0.01516
G1 X86.374 Y121.53 E0.01091
G1 X86.597 Y121.53 E0.00779
G1 X86.702 Y121.53 E0.00367
G1 X86.597 Y121.591
G1 X86.581 Y121.603
G1 X86.481 Y121.676
G1 X86.248 Y121.846
G1 X86.231 Y121.862 E0.00051
G1 X85.946 Y122.126 E0.00356
G1 X85.929 Y122.141 E0.00079
G1 X85.915 Y122.157
G1 X85.66 Y122.448
G1 X85.651 Y122.46
G1 X85.625 Y122.494
G0 F4050 X85.517 Y122.641
G0 X85.426 Y122.764
G0 X85.409 Y122.786
G0 X85.37 Y122.855
G0 F6000 X87.954 Y121.842
G0 X88.972 Y121.723
G0 X89.974 Y121.921
G0 X90.184 Y122.031
G0 X91.972 Y123.102
G1 F4500 X91.754 Y122.782 E0.01352
G1 X91.509 Y122.498 E0.0131
G1 X91.259 Y122.254 E0.0122
G1 X91.242 Y122.237 E0.00084
G1 X91.225 Y122.224 E0.00075
G1 X90.935 Y121.996 E0.01288
G1 X90.621 Y121.805 E0.01284
G1 X90.6 Y121.792 E0.00086
G1 X90.58 Y121.783 E0.00077
G1 X90.137 Y121.578 E0.01705
G1 X90.108 Y121.564 E0.00112
G1 X90.08 Y121.556 E0.00102
G1 X89.747 Y121.458 E0.01212
G1 X89.728 Y121.452 E0.0007
G1 X89.711 Y121.449 E0.0006
G1 X89.388 Y121.384 E0.01151
G1 X89.366 Y121.379 E0.00079
G1 X89.011 Y121.345 E0.01245
G1 X88.99 Y121.342 E0.00074
G1 X88.604 Y121.345 E0.01348
G1 X88.225 Y121.391 E0.01333
G1 X87.849 Y121.476 E0.01346
G1 X87.828 Y121.483 E0.00077
G1 X87.49 Y121.6 E0.01249
G1 X87.155 Y121.753 E0.01286
G1 X86.913 Y121.893 E0.00976
G1 X86.827 Y121.943 E0.00347
G1 X86.515 Y122.171 E0.0135
G1 X86.498 Y122.187 E0.00082
G1 X86.247 Y122.419 E0.01194
G1 X86.23 Y122.434 E0.00079
G1 X86.216 Y122.45 E0.00074
G1 X85.987 Y122.712 E0.01215
G1 X85.778 Y122.994 E0.01226
G1 X85.762 Y123.015 E0.00092
G1 X85.75 Y123.037 E0.00088
G1 X85.578 Y123.343 E0.01226
G1 X85.565 Y123.365 E0.00089
G1 X85.556 Y123.388 E0.00086
G1 X85.359 Y123.862 E0.01793
G1 X85.353 Y123.888 E0.00093
G1 X85.257 Y124.245 E0.01291
G1 X85.203 Y124.6 E0.01254
G1 X85.199 Y124.62 E0.00071
G1 X85.198 Y124.64 E0.0007
G1 X85.18 Y124.977 E0.01179
G1 X85.178 Y125 E0.00081
G1 X85.199 Y125.38 E0.01329
G1 X85.202 Y125.399 E0.00067
G1 X85.257 Y125.754 E0.01255
G1 X85.355 Y126.123 E0.01333
G1 X85.362 Y126.142 E0.00071
G1 X85.49 Y126.478 E0.01256
G1 X85.661 Y126.817 E0.01326
G1 X85.722 Y126.912 E0.00394
G1 X85.867 Y127.136 E0.00932
G1 X85.88 Y127.152 E0.00072
G1 X86.089 Y127.415 E0.01173
G1 X86.104 Y127.434 E0.00085
G1 X86.373 Y127.704 E0.01331
G1 X86.65 Y127.933 E0.01255
G1 X86.668 Y127.948 E0.00082
G1 X86.688 Y127.961 E0.00083
G1 X86.99 Y128.157 E0.01257
G1 X87.3 Y128.317 E0.01218
G1 X87.317 Y128.326 E0.00067
G1 X87.645 Y128.459 E0.01236
G1 X87.666 Y128.468 E0.0008
G1 X88.009 Y128.564 E0.01244
G1 X88.024 Y128.569 E0.00055
G1 X88.223 Y128.608 E0.00708
G1 X88.238 Y128.611 E0.00053
G1 X88.253 Y128.612 E0.00053
G1 X88.604 Y128.655 E0.01235
G1 X88.967 Y128.657 E0.01268
G1 X88.99 Y128.658 E0.0008
G1 X89.011 Y128.656 E0.00074
G1 X89.366 Y128.621 E0.01246
G1 X89.726 Y128.548 E0.01283
G1 X89.991 Y128.472 E0.00963
G1 X90.098 Y128.441 E0.00389
G1 X90.461 Y128.28 E0.01387
G1 X90.923 Y128.012 E0.01865
G1 X90.945 Y127.995 E0.00097
G1 X91.223 Y127.778 E0.01232
G1 X91.242 Y127.763 E0.00085
G1 X91.257 Y127.748 E0.00074
G1 X91.509 Y127.502 E0.0123
G1 X91.737 Y127.237 E0.01221
G1 X91.754 Y127.218 E0.00089
G1 X91.766 Y127.199 E0.00078
G1 X91.964 Y126.91 E0.01223
G1 X91.972 Y126.898 E0.0005
G1 X92.143 Y126.578 E0.01267
G1 X92.154 Y126.558 E0.0008
G1 X92.162 Y126.536 E0.00082
G1 X92.285 Y126.228 E0.01158
G1 X92.293 Y126.21 E0.00069
G1 X92.396 Y125.866 E0.01254
G1 X92.405 Y125.839 E0.00099
G1 X92.409 Y125.812 E0.00095
G1 X92.486 Y125.326 E0.01718
G1 X92.491 Y125.297 E0.00103
G1 X92.491 Y125.269 E0.00098
G1 X92.498 Y124.92 E0.01219
G1 X92.499 Y124.897 E0.0008
G1 X92.468 Y124.529 E0.0129
G1 X92.465 Y124.512 E0.0006
G1 X92.403 Y124.153 E0.01272
G1 X92.396 Y124.13 E0.00084
G1 X92.293 Y123.791 E0.01237
G0 F4050 X92.293 Y123.79
G0 X92.154 Y123.442
G0 X91.972 Y123.102
G0 F6000 X91.612 Y123.32
G1 F1050 E0.02658
G1 F4500 X91.42 Y123.038 E0.01191
G1 X91.202 Y122.786 E0.01164
G1 X90.965 Y122.553 E0.01161
G1 X90.695 Y122.342 E0.01197
G1 X90.402 Y122.163 E0.01199
G1 X89.96 Y121.958 E0.01702
G1 X89.627 Y121.86 E0.01212
G1 X89.304 Y121.795 E0.01151
G1 X88.971 Y121.762 E0.01169
G1 X88.631 Y121.765 E0.01187
G1 X88.296 Y121.805 E0.01178
G1 X87.964 Y121.88 E0.01189
G1 X87.647 Y121.99 E0.01172
G1 X87.348 Y122.127 E0.01149
G1 X87.057 Y122.295 E0.01173
G1 X86.782 Y122.496 E0.0119
G1 X86.531 Y122.727 E0.01191
G1 X86.314 Y122.976 E0.01153
G1 X86.115 Y123.244 E0.01166
G1 X85.943 Y123.549 E0.01223
G1 X85.758 Y123.997 E0.01693
G1 X85.669 Y124.332 E0.01211
G1 X85.617 Y124.664 E0.01174
G1 X85.599 Y125 E0.01175
G1 X85.617 Y125.336 E0.01175
G1 X85.669 Y125.668 E0.01174
G1 X85.755 Y125.994 E0.01177
G1 X85.875 Y126.308 E0.01174
G1 X86.026 Y126.608 E0.01173
